X:69
T:69 La Damoiselle
C:Shoosmith MS
I:abc2nwc
M:6/8
L:1/8
K:G
B/2c/2|d2d dBd|e2c c2e|dec BcA|G2G GBc|
d2d dBd|e2c c2e|ded BcA|G3G2:|
d|g2g gfg|a2d d2f/2g/2|g2a aga|c'2g g2b|
abg fge|d2d dBd|e2c c2e|dec BcA|
G2G GBd|d2d dBd|e2c c2e|dec BcA|G3G2:|

